resources/assets/icons/thumbs-up.svg

<svg viewBox="0 0 17 16" xmlns="http://www.w3.org/2000/svg">
<path fill-rule="evenodd" fill="none" clip-rule="evenodd" d="M3.68127 14.2405C4.01866 14.245 4.35397 14.2943 4.67839 14.3871L7.00415 15.0514C7.34694 15.1494 7.70171 15.1991 8.05823 15.1992L11.1846 15.1992C13.1567 15.1992 14.8082 13.7054 15.0054 11.7432L15.1974 8.47922C15.2675 7.10523 14.3559 5.87358 13.0214 5.53906L12.0902 5.33554C11.6622 5.22941 11.3615 4.84532 11.3613 4.40434L11.3613 2.23922C11.3613 1.44393 10.7166 0.799218 9.92127 0.799218C9.12598 0.799218 8.48127 1.44393 8.48127 2.23922L8.48127 3.23378C8.48127 5.88475 6.33224 8.03378 3.68127 8.03378L3.68127 14.2405Z" stroke="currentColor" stroke-width="1.6" stroke-linecap="round" stroke-linejoin="round"/>
<path fill-rule="evenodd" fill="none" clip-rule="evenodd" d="M3.68167 15.1992L0.801671 15.1992L0.80167 6.55922L3.68167 6.55922L3.68167 15.1992Z" stroke="currentColor" stroke-width="1.6" stroke-linecap="round" stroke-linejoin="round"/>
</svg>

<svg viewBox="0 0 17 16" xmlns="http://www.w3.org/2000/svg"><path fill="none" clip-rule="evenodd" d="M3.681 14.24c.338.005.673.054.997.147l2.326.664c.343.098.698.148 1.054.148h3.127a3.84 3.84 0 0 0 3.82-3.456l.192-3.264a2.88 2.88 0 0 0-2.176-2.94l-.93-.203a.96.96 0 0 1-.73-.932V2.24a1.44 1.44 0 1 0-2.88 0v.995a4.8 4.8 0 0 1-4.8 4.8v6.207Z" stroke="currentColor" stroke-width="1.6" stroke-linecap="round" stroke-linejoin="round"/><path fill="none" clip-rule="evenodd" d="M3.682 15.2H.802V6.56h2.88v8.64Z" stroke="currentColor" stroke-width="1.6" stroke-linecap="round" stroke-linejoin="round"/></svg>
